packages/crs-framework/resources/svg/lookup.svg

<svg width="24" height="24" xmlns="http://www.w3.org/2000/svg"><path d="M20 19.59V8.83c0-.53-.21-1.04-.59-1.41l-4.83-4.83c-.37-.38-.88-.59-1.41-.59H6c-1.1 0-1.99.9-1.99 2L4 20c0 1.1.89 2 1.99 2H18c.45 0 .85-.15 1.19-.4l-4.43-4.43c-.86.56-1.89.88-3 .82-2.37-.11-4.4-1.96-4.72-4.31a5.013 5.013 0 0 1 5.83-5.61c1.95.33 3.57 1.85 4 3.78.33 1.46.01 2.82-.7 3.9L20 19.59ZM9 13c0 1.66 1.34 3 3 3s3-1.34 3-3-1.34-3-3-3-3 1.34-3 3Z"/></svg>

<svg width="24" height="24" viewBox="0 0 24 24" fill="none" xmlns="http://www.w3.org/2000/svg">
<path d="M20 19.59V8.83C20 8.3 19.79 7.79 19.41 7.42L14.58 2.59C14.21 2.21 13.7 2 13.17 2H6C4.9 2 4.01 2.9 4.01 4L4 20C4 21.1 4.89 22 5.99 22H18C18.45 22 18.85 21.85 19.19 21.6L14.76 17.17C13.9 17.73 12.87 18.05 11.76 17.99C9.39 17.88 7.36 16.03 7.04 13.68C6.6 10.33 9.49 7.5 12.87 8.07C14.82 8.4 16.44 9.92 16.87 11.85C17.2 13.31 16.88 14.67 16.17 15.75L20 19.59ZM9 13C9 14.66 10.34 16 12 16C13.66 16 15 14.66 15 13C15 11.34 13.66 10 12 10C10.34 10 9 11.34 9 13Z" fill="#272C37"/>
</svg>
